X:1675
T:Daminen's Toastie
M:C|
L:1/8
Q:180
C:John McCusker
R:reel
D:John McCusker: Goodnight Ginger
Z:Devin McCabe
K:E
B2BA G/2A/2BE2|e/2f/2g fe deB2-|Bc A/2B/2c BeEG|A/2B/2c BA GAF2|
!B2BA GBE2|e/2f/2g fe deBe|c/2d/2e af gedc|1Bagf feec:|2Bagf feeg|
!|:gafe dBB2|c/2d/2e dc- cBGB|c3e B2Be|c/2d/2e de fgag|
!g2ga f2fe|c/2d/2e dc- cBGB|c2A/2B/2c BeEe|1f/2g/2a gf fe e/2f/2g:|2f/2g
/2a gf feec||
